SVG_Azure_All/Application Market Insights.svg

<?xml version="1.0" encoding="UTF-8" standalone="no"?>
<!-- Generated by Microsoft Visio, SVG Export Application Market Insights.svg Page-1 -->

<svg
   xmlns:dc="http://purl.org/dc/elements/1.1/"
   xmlns:cc="http://creativecommons.org/ns#"
   xmlns:rdf="http://www.w3.org/1999/02/22-rdf-syntax-ns#"
   xmlns:svg="http://www.w3.org/2000/svg"
   xmlns="http://www.w3.org/2000/svg"
   xmlns:sodipodi="http://sodipodi.sourceforge.net/DTD/sodipodi-0.dtd"
   xmlns:inkscape="http://www.inkscape.org/namespaces/inkscape"
   width="0.78735912in"
   height="0.78748971in"
   viewBox="0 0 56.689855 56.6994"
   xml:space="preserve"
   class="st6"
   version="1.1"
   id="svg68"
   sodipodi:docname="Application Market Insights.svg"
   style="font-size:12px;overflow:visible;color-interpolation-filters:sRGB;fill:none;fill-rule:evenodd;stroke-linecap:square;stroke-miterlimit:3"
   inkscape:version="0.92.5 (2060ec1f9f, 2020-04-08)"><metadata
   id="metadata72"><rdf:RDF><cc:Work
       rdf:about=""><dc:format>image/svg+xml</dc:format><dc:type
         rdf:resource="http://purl.org/dc/dcmitype/StillImage" /></cc:Work></rdf:RDF></metadata><sodipodi:namedview
   pagecolor="#ffffff"
   bordercolor="#666666"
   borderopacity="1"
   objecttolerance="10"
   gridtolerance="10"
   guidetolerance="10"
   inkscape:pageopacity="0"
   inkscape:pageshadow="2"
   inkscape:window-width="640"
   inkscape:window-height="480"
   id="namedview70"
   showgrid="false"
   inkscape:zoom="1.8365233"
   inkscape:cx="37.795184"
   inkscape:cy="18.900351"
   inkscape:window-x="0"
   inkscape:window-y="0"
   inkscape:window-maximized="0"
   inkscape:current-layer="svg68" />
	<style
   type="text/css"
   id="style2">
	<![CDATA[
		.st1 {fill:url(#grad0-7);stroke:none;stroke-linecap:butt;stroke-width:0.75}
		.st2 {fill:#000000;fill-opacity:0.32;stroke:none;stroke-linecap:butt;stroke-width:0.75}
		.st3 {fill:#000000;fill-opacity:0.24;stroke:none;stroke-linecap:butt;stroke-width:0.75}
		.st4 {fill:url(#grad0-15);stroke:none;stroke-linecap:butt;stroke-width:0.75}
		.st5 {fill:url(#grad0-23);stroke:none;stroke-linecap:butt;stroke-width:0.75}
		.st6 {fill:none;fill-rule:evenodd;font-size:12px;overflow:visible;stroke-linecap:square;stroke-miterlimit:3}
	]]>
	</style>

	<defs
   id="Patterns_And_Gradients">
		<linearGradient
   id="grad0-7"
   x1="0"
   y1="39.69"
   x2="56.69"
   y2="39.69"
   gradientUnits="userSpaceOnUse">
			<stop
   offset="0"
   stop-color="#8661c5"
   stop-opacity="1"
   id="stop4" />
			<stop
   offset="1"
   stop-color="#5c428b"
   stop-opacity="1"
   id="stop6" />
		</linearGradient>
		<linearGradient
   id="grad0-15"
   x1="0"
   y1="46.055453"
   x2="53.212129"
   y2="46.055453"
   gradientTransform="scale(1.0653586,0.93865107)"
   gradientUnits="userSpaceOnUse">
			<stop
   offset="0"
   stop-color="#cd9ef0"
   stop-opacity="1"
   id="stop9" />
			<stop
   offset="0.67"
   stop-color="#9f75d3"
   stop-opacity="1"
   id="stop11" />
		</linearGradient>
		<linearGradient
   id="grad0-23"
   x1="0"
   y1="58.419432"
   x2="48.248103"
   y2="58.419432"
   gradientTransform="scale(1.1749685,0.85108667)"
   gradientUnits="userSpaceOnUse">
			<stop
   offset="0"
   stop-color="#ebc7ff"
   stop-opacity="1"
   id="stop14" />
			<stop
   offset="0.365"
   stop-color="#e4b4ff"
   stop-opacity="1"
   id="stop16" />
		</linearGradient>
	</defs>
	<g
   id="g66"
   transform="translate(-5.6693772,-5.6649)">
		<title
   id="title20">Page-1</title>
		<g
   id="group9487-1"
   transform="translate(5.66929,-34.0157)">
			<title
   id="title22">Application Market Insights</title>
			<g
   id="group9488-2">
				<title
   id="title24">Sheet.9488</title>
				<g
   id="group9489-3">
					<title
   id="title26">Sheet.9489</title>
					<g
   id="shape9490-4">
						<title
   id="title28">Sheet.9490</title>
						<path
   d="M 28.35,96.38 C 44,96.38 56.69,83.69 56.69,68.03 56.69,52.38 44,39.69 28.35,39.69 12.69,39.69 0,52.38 0,68.03 0,83.69 12.69,96.38 28.35,96.38 Z"
   class="st1"
   id="path30"
   inkscape:connector-curvature="0"
   style="fill:url(#grad0-7);stroke:none;stroke-width:0.75;stroke-linecap:butt" />
					</g>
					<g
   id="shape9491-8"
   transform="translate(0,-2.3622)">
						<title
   id="title33">Sheet.9491</title>
						<path
   d="M 28.35,43.23 C 12.69,43.23 0,55.92 0,71.57 c 0,8.47 3.71,16.07 9.6,21.26 3.54,3.55 11.56,-21.26 18.75,-21.26 7.19,0 15.2,24.81 18.75,21.26 5.88,-5.19 9.59,-12.79 9.59,-21.26 C 56.69,55.92 44,43.23 28.35,43.23 Z"
   class="st2"
   id="path35"
   inkscape:connector-curvature="0"
   style="fill:#000000;fill-opacity:0.31999996;stroke:none;stroke-width:0.75;stroke-linecap:butt" />
					</g>
					<g
   id="shape9492-10"
   transform="translate(0,-3.3189)">
						<title
   id="title38">Sheet.9492</title>
						<path
   d="M 28.35,43.23 C 12.69,43.23 0,55.92 0,71.57 c 0,8.47 3.71,16.07 9.6,21.26 3.54,3.55 11.56,-21.26 18.75,-21.26 7.19,0 15.2,24.81 18.75,21.26 5.88,-5.19 9.59,-12.79 9.59,-21.26 C 56.69,55.92 44,43.23 28.35,43.23 Z"
   class="st3"
   id="path40"
   inkscape:connector-curvature="0"
   style="fill:#000000;fill-opacity:0.23999999;stroke:none;stroke-width:0.75;stroke-linecap:butt" />
					</g>
					<g
   id="shape9493-12"
   transform="translate(0,-3.54331)">
						<title
   id="title43">Sheet.9493</title>
						<path
   d="M 28.35,43.23 C 12.69,43.23 0,55.92 0,71.57 c 0,8.47 3.71,16.07 9.6,21.26 3.54,3.55 11.56,-21.26 18.75,-21.26 7.19,0 15.2,24.81 18.75,21.26 5.88,-5.19 9.59,-12.79 9.59,-21.26 C 56.69,55.92 44,43.23 28.35,43.23 Z"
   class="st4"
   id="path45"
   inkscape:connector-curvature="0"
   style="fill:url(#grad0-15);stroke:none;stroke-width:0.75;stroke-linecap:butt" />
					</g>
					<g
   id="shape9494-16"
   transform="translate(0,-8.85827)">
						<title
   id="title48">Sheet.9494</title>
						<path
   d="M 28.35,49.72 C 12.69,49.72 0,62.42 0,78.07 c 0,4.22 0.89,8.23 2.57,11.81 3.04,6.5 14.34,-24.21 25.78,-24.21 11.44,0 23.33,29.53 25.77,24.21 1.65,-3.59 2.57,-7.59 2.57,-11.81 C 56.69,62.42 44,49.72 28.35,49.72 Z"
   class="st2"
   id="path50"
   inkscape:connector-curvature="0"
   style="fill:#000000;fill-opacity:0.31999996;stroke:none;stroke-width:0.75;stroke-linecap:butt" />
					</g>
					<g
   id="shape9495-18"
   transform="translate(0,-9.81496)">
						<title
   id="title53">Sheet.9495</title>
						<path
   d="M 28.35,49.72 C 12.69,49.72 0,62.42 0,78.07 c 0,4.22 0.89,8.23 2.57,11.81 3.04,6.5 14.34,-24.21 25.78,-24.21 11.44,0 23.33,29.53 25.77,24.21 1.65,-3.59 2.57,-7.59 2.57,-11.81 C 56.69,62.42 44,49.72 28.35,49.72 Z"
   class="st3"
   id="path55"
   inkscape:connector-curvature="0"
   style="fill:#000000;fill-opacity:0.23999999;stroke:none;stroke-width:0.75;stroke-linecap:butt" />
					</g>
					<g
   id="shape9496-20"
   transform="translate(0,-10.0394)">
						<title
   id="title58">Sheet.9496</title>
						<path
   d="M 28.35,49.72 C 12.69,49.72 0,62.42 0,78.07 c 0,4.22 0.89,8.23 2.57,11.81 3.04,6.5 14.34,-24.21 25.78,-24.21 11.44,0 23.33,29.53 25.77,24.21 1.65,-3.59 2.57,-7.59 2.57,-11.81 C 56.69,62.42 44,49.72 28.35,49.72 Z"
   class="st5"
   id="path60"
   inkscape:connector-curvature="0"
   style="fill:url(#grad0-23);stroke:none;stroke-width:0.75;stroke-linecap:butt" />
					</g>
				</g>
			</g>
		</g>
	</g>
</svg>

<?xml version="1.0" encoding="UTF-8" standalone="no"?>
<!DOCTYPE svg PUBLIC "-//W3C//DTD SVG 1.1//EN" "http://www.w3.org/Graphics/SVG/1.1/DTD/svg11.dtd">
<!-- Generated by Microsoft Visio, SVG Export Application Market Insights.svg Page-1 -->
<svg xmlns="http://www.w3.org/2000/svg" xmlns:xlink="http://www.w3.org/1999/xlink" xmlns:ev="http://www.w3.org/2001/xml-events"
		width="0.944882in" height="1.33858in" viewBox="0 0 68.0315 96.378" xml:space="preserve" color-interpolation-filters="sRGB"
		class="st6">
	<style type="text/css">
	<![CDATA[
		.st1 {fill:url(#grad0-7);stroke:none;stroke-linecap:butt;stroke-width:0.75}
		.st2 {fill:#000000;fill-opacity:0.32;stroke:none;stroke-linecap:butt;stroke-width:0.75}
		.st3 {fill:#000000;fill-opacity:0.24;stroke:none;stroke-linecap:butt;stroke-width:0.75}
		.st4 {fill:url(#grad0-15);stroke:none;stroke-linecap:butt;stroke-width:0.75}
		.st5 {fill:url(#grad0-23);stroke:none;stroke-linecap:butt;stroke-width:0.75}
		.st6 {fill:none;fill-rule:evenodd;font-size:12px;overflow:visible;stroke-linecap:square;stroke-miterlimit:3}
	]]>
	</style>

	<defs id="Patterns_And_Gradients">
		<linearGradient id="grad0-7" x1="0" y1="0" x2="1" y2="0" gradientTransform="rotate(46.974357760412 0.5 0.5)">
			<stop offset="0" stop-color="#8661c5" stop-opacity="1"/>
			<stop offset="1" stop-color="#5c428b" stop-opacity="1"/>
		</linearGradient>
		<linearGradient id="grad0-15" x1="0" y1="0" x2="1" y2="0" gradientTransform="rotate(74.982830339014 0.5 0.5)">
			<stop offset="0" stop-color="#cd9ef0" stop-opacity="1"/>
			<stop offset="0.67" stop-color="#9f75d3" stop-opacity="1"/>
		</linearGradient>
		<linearGradient id="grad0-23" x1="0" y1="0" x2="1" y2="0" gradientTransform="rotate(69.881436479914 0.5 0.5)">
			<stop offset="0" stop-color="#ebc7ff" stop-opacity="1"/>
			<stop offset="0.365" stop-color="#e4b4ff" stop-opacity="1"/>
		</linearGradient>
	</defs>
	<g>
		<title>Page-1</title>
		<g id="group9282-1" transform="translate(5.66929,-34.0157)">
			<title>Application Market Insights</title>
			<g id="group9283-2">
				<title>Sheet.9283</title>
				<g id="group9284-3">
					<title>Sheet.9284</title>
					<g id="shape9285-4">
						<title>Sheet.9285</title>
						<path d="M28.35 96.38 C44 96.38 56.69 83.69 56.69 68.03 C56.69 52.38 44 39.69 28.35 39.69 C12.69 39.69 0
									 52.38 0 68.03 C0 83.69 12.69 96.38 28.35 96.38 Z" class="st1"/>
					</g>
					<g id="shape9286-8" transform="translate(0,-2.3622)">
						<title>Sheet.9286</title>
						<path d="M28.35 43.23 C12.69 43.23 0 55.92 0 71.57 C0 80.04 3.71 87.64 9.6 92.83 C13.14 96.38 21.16 71.57
									 28.35 71.57 C35.54 71.57 43.55 96.38 47.1 92.83 C52.98 87.64 56.69 80.04 56.69 71.57 C56.69
									 55.92 44 43.23 28.35 43.23 Z" class="st2"/>
					</g>
					<g id="shape9287-10" transform="translate(0,-3.3189)">
						<title>Sheet.9287</title>
						<path d="M28.35 43.23 C12.69 43.23 0 55.92 0 71.57 C0 80.04 3.71 87.64 9.6 92.83 C13.14 96.38 21.16 71.57
									 28.35 71.57 C35.54 71.57 43.55 96.38 47.1 92.83 C52.98 87.64 56.69 80.04 56.69 71.57 C56.69
									 55.92 44 43.23 28.35 43.23 Z" class="st3"/>
					</g>
					<g id="shape9288-12" transform="translate(0,-3.54331)">
						<title>Sheet.9288</title>
						<path d="M28.35 43.23 C12.69 43.23 0 55.92 0 71.57 C0 80.04 3.71 87.64 9.6 92.83 C13.14 96.38 21.16 71.57
									 28.35 71.57 C35.54 71.57 43.55 96.38 47.1 92.83 C52.98 87.64 56.69 80.04 56.69 71.57 C56.69
									 55.92 44 43.23 28.35 43.23 Z" class="st4"/>
					</g>
					<g id="shape9289-16" transform="translate(0,-8.85827)">
						<title>Sheet.9289</title>
						<path d="M28.35 49.72 C12.69 49.72 0 62.42 0 78.07 C0 82.29 0.89 86.3 2.57 89.88 C5.61 96.38 16.91 65.67
									 28.35 65.67 C39.79 65.67 51.68 95.2 54.12 89.88 C55.77 86.29 56.69 82.29 56.69 78.07 C56.69
									 62.42 44 49.72 28.35 49.72 Z" class="st2"/>
					</g>
					<g id="shape9290-18" transform="translate(0,-9.81496)">
						<title>Sheet.9290</title>
						<path d="M28.35 49.72 C12.69 49.72 0 62.42 0 78.07 C0 82.29 0.89 86.3 2.57 89.88 C5.61 96.38 16.91 65.67
									 28.35 65.67 C39.79 65.67 51.68 95.2 54.12 89.88 C55.77 86.29 56.69 82.29 56.69 78.07 C56.69
									 62.42 44 49.72 28.35 49.72 Z" class="st3"/>
					</g>
					<g id="shape9291-20" transform="translate(0,-10.0394)">
						<title>Sheet.9291</title>
						<path d="M28.35 49.72 C12.69 49.72 0 62.42 0 78.07 C0 82.29 0.89 86.3 2.57 89.88 C5.61 96.38 16.91 65.67
									 28.35 65.67 C39.79 65.67 51.68 95.2 54.12 89.88 C55.77 86.29 56.69 82.29 56.69 78.07 C56.69
									 62.42 44 49.72 28.35 49.72 Z" class="st5"/>
					</g>
				</g>
			</g>
		</g>
	</g>
</svg>
